X: 23
T: Mitt i Juli
O: Jonas Olsson, J\"arvs\"o 2002
S: Bruce Sagan's "scanfolk" session archive 2022-9-2
F: https://app.box.com/s/u6iiren0igvsukrhdducy7orq72jayq8/file/979425523399
Z: 2021 John Chambers <jc:trillian.mit.edu>
R: polska
M: 3/4
L: 1/16
K: G
|:\
(vGABc d2)d2 B2G2- | G2e2- e2c2 A2d2 | B2cB (A2d2) G2F2 | (D2E2) E8 | E2C2 D3F A2c2- |
c2B2- B2A2 B2G2- | G2c2- c2e2 d2A2 | B4 d4 e4- | e2g2 f2a2 g4 | (efed e2)(c2 A2)G2 | (F2G2) G8 :|
|:\
A3G A2B2 c2A2 | B3A B2d2 B2G2 | A3G A2B2 c2A2- | A2B2- B2G2 D4 | A3(G A2)B2 c2A2 |
B2B2 c2c2 d2B2 | c2d2 e4 f2ef | (ga)gf g4 d4 | (efed e2)(c2 A2)G2 |(F2G2) G8 |]

